X:52
T:Lady Spellor. (p)1651.PLFD.052
T:Lady Spillers. (p)1651.PLFD.052
M:6/4
L:1/4
Q:3/4=120
S:Playford, Dancing Master,1st Ed.,1651.
O:England
H:1651.
Z:Chris Partington.
K:C
d2dd2d|d3B3|c2Bc2d|e3c3|
A2AA2B|c2de2c|d2cB2A|B3G3:|
M:4/4
L:1/4
Q:1/2=60
|:d/d/d/d/dB|c/B/c/d/eB|A/A/A/B/ c/d/e/f/|g/d/d/<d/BG:|
